src/assets/images/icons/networks/neon.svg

<svg width="200" height="201" viewBox="0 0 200 201" fill="none" xmlns="http://www.w3.org/2000/svg">
<path fill-rule="evenodd" clip-rule="evenodd" d="M99.9998 200.724C155.226 200.724 200 155.982 200 100.795C200.141 45.4668 155.226 0.724426 99.9998 0.724426C44.7739 0.724426 0 45.4668 0 100.654C0 155.841 44.7739 200.724 99.9998 200.724ZM61.2993 58.1697L98.7286 95.5724V60.1457C98.7286 59.8635 98.7286 59.44 98.8699 59.1577C99.0111 58.8755 99.1524 58.5931 99.4349 58.3109C99.7173 58.0286 99.9998 57.8875 100.282 57.7463C100.565 57.6051 100.989 57.6051 101.271 57.6051H143.361H143.503C143.503 57.6051 143.503 57.6051 143.644 57.6051C143.926 57.6051 144.35 57.7463 144.633 57.7463C144.915 57.8875 145.197 58.0286 145.48 58.3109C145.762 58.5931 145.904 58.8755 146.045 59.1577C146.186 59.44 146.186 59.8635 146.186 60.1457V101.924C146.186 102.065 146.186 102.065 146.186 102.207V144.267C146.186 144.691 146.186 144.973 146.045 145.255C145.904 145.537 145.762 145.82 145.48 146.102C145.197 146.384 144.915 146.525 144.633 146.667C144.35 146.808 143.926 146.808 143.644 146.808C143.22 146.808 142.938 146.808 142.514 146.667C142.231 146.525 141.808 146.384 141.666 146.102L104.237 108.699V144.267C104.237 144.549 104.237 144.973 104.096 145.255C103.955 145.537 103.813 145.82 103.531 146.102C103.248 146.384 102.966 146.525 102.683 146.667C102.401 146.808 101.977 146.808 101.695 146.808H59.4632H59.3219C59.0394 146.808 58.6157 146.667 58.3332 146.667C58.0507 146.525 57.7683 146.384 57.4858 146.102C57.2033 145.82 57.0621 145.537 56.9208 145.255C56.7796 144.973 56.7796 144.549 56.7796 144.267V102.207C56.7796 101.924 56.7796 101.783 56.9208 101.5V60.1457C56.9208 59.5811 57.062 59.1577 57.3445 58.5931C57.627 58.1697 58.0507 57.7463 58.6157 57.6051C59.0394 57.464 59.6044 57.3229 60.1694 57.464C60.4519 57.6051 61.0168 57.8875 61.2993 58.1697Z" fill="#DF42AB"/>
</svg>

<svg xmlns="http://www.w3.org/2000/svg" width="200" height="201" fill="none"><path fill="#DF42AB" fill-rule="evenodd" d="M100 200.724c55.226 0 100-44.742 100-99.929.141-55.328-44.774-100.07-100-100.07S0 45.466 0 100.653s44.774 100.07 100 100.07M61.3 58.17l37.429 37.402V60.146c0-.282 0-.706.14-.988.142-.282.283-.565.566-.847.282-.282.565-.423.847-.565.283-.14.707-.14.989-.14h42.373c.282 0 .706.14.989.14.282.142.564.283.847.565.282.282.424.565.565.847s.141.706.141.988v84.121c0 .424 0 .706-.141.988s-.283.565-.565.847c-.283.282-.565.423-.847.565s-.707.141-.989.141c-.424 0-.706 0-1.13-.141-.283-.142-.706-.283-.848-.565l-37.429-37.403v35.568c0 .282 0 .706-.141.988s-.283.565-.565.847c-.283.282-.565.423-.848.565-.282.141-.706.141-.988.141H59.322c-.283 0-.706-.141-.989-.141-.282-.142-.565-.283-.847-.565s-.424-.565-.565-.847-.141-.706-.141-.988v-42.06c0-.283 0-.424.14-.707V60.146c0-.565.142-.988.424-1.553.283-.423.707-.847 1.272-.988.423-.141.988-.282 1.553-.141.283.141.848.424 1.13.706" clip-rule="evenodd"/></svg>
